X:1
T:Stafford, 87.87 D
T:Stafford, 87.87 D
T:Johann G. C. Störl, arranged by Samuel S Wesley
T:Public Domain Courtesy of the Cyber Hymnal™
C:Johann G. C. Störl, arranged by Samuel S Wesley
Z:Public Domain
Z:Courtesy of the Cyber Hymnal™
%%score ( 1 2 ) ( 3 4 )
L:1/8
Q:1/4=110
M:4/4
K:Eb
V:1 treble 
V:2 treble 
V:3 bass 
V:4 bass 
V:1
 [G,C]2 [=B,D]2 [CE]2 D2 | [CE]2 [DF]2 [DG]2 [DG]2 | [Fc]2 [Fd]2 [Ee]2 [=Ae]2 | %3
 [Gc]2 [F=B]2 [Ec]4 | [Ge]2 [Ge]2 [^Fd]2 [Fd]2 | [Gc]2 [=Ad]2 [D=B]2 [=B,G]2 | %6
 [CE]2 [DF]2 [EG]2 [CA]2 | [CE]2 [=B,D]2 [G,C]4 |] %8
V:2
 x6 D2 | x8 | x8 | x8 | x8 | x8 | x8 | x8 |] %8
V:3
 [C,E,]2 [G,,G,]2 [C,G,]2 [=B,,G,]2 | [C,G,]2 ([B,,D][A,,C]) [G,,=B,]2 [G,,B,]2 | %2
 [A,,C]2 [A,B,]2 [G,B,]2 [^F,D]2 | [G,E]2 [G,,D]2 [C,C]4 | [C,C]2 [C,B,]2 [D,=A,]2 [D,B,]2 | %5
 [=E,B,]2 [^F,=A,]2 G,2 [G,,G,]2 | [C,G,]2 [B,,B,]2 [E,B,]2 [F,A,]2 | G,2 [G,,G,]2 [C,E,]4 |] %8
V:4
 x8 | x8 | x8 | x8 | x8 | x4 G,2 x2 | x8 | G,2 x6 |] %8

